static/images/logos/trusted-by/american-airlines.svg

<svg xmlns="http://www.w3.org/2000/svg" width="147" height="24" viewBox="0 0 147 24" fill="none">
    <g clip-path="url(#clip0_1895_40342)">
        <path d="M130.771 16.6625L133.323 20.9496C134.114 22.2345 135.417 22.8176 137.041 22.8176H143.606L135.92 13.4012L134.83 12.7734L131.952 13.7227L130.494 15.8559L130.771 16.6625Z" fill="#ADADB0"/>
        <path d="M135.921 13.396L134.317 11.4297L130.076 13.7358L130.526 16.0635L130.772 16.6573C130.676 15.0797 133.355 13.2481 135.921 13.396Z" fill="#19191C"/>
        <path d="M130.771 16.6591L128.477 12.8237C128.201 12.3886 128.125 12.0078 128.125 11.5643C128.125 11.0765 128.331 10.809 129.121 10.3853C130.041 9.93983 131.894 9.74609 133.804 9.74609C136.908 9.74609 137.652 10.7532 137.969 11.8399C137.969 11.8399 137.531 11.6638 136.5 11.6638C133.23 11.6638 130.616 13.2686 130.616 15.6983C130.616 16.2082 130.771 16.6591 130.771 16.6591Z" fill="#ADADB0"/>
        <path d="M120.918 0.339844H124.004C125.306 0.339844 125.839 0.878138 126.366 1.40627C126.969 1.96012 128.796 4.46104 132.66 9.34223H128.478C126.768 9.34223 126.227 9.04771 125.566 8.02802L120.918 0.339844Z" fill="#ADADB0"/>
        <path d="M145.53 21.8008L145.753 22.6122H145.757L145.984 21.8008H146.174L146.321 22.8167H146.169L146.065 21.9878H146.062L145.827 22.8167H145.664L145.437 21.9912H145.434L145.33 22.8167H145.185L145.331 21.8008H145.53ZM145.057 21.8008V21.9313H144.761V22.8167H144.614V21.9313H144.318V21.8008H145.057Z" fill="#ADADB0"/>
        <path d="M72.632 9.35419H72.5975L70.8411 14.3739H74.3925L72.632 9.35419ZM75.7756 18.3286L74.9155 15.8628H70.3173L69.4556 18.3286H67.4928L71.6116 7.35308H73.7989L77.8544 18.3286H75.7756ZM92.4359 6.9133H94.356V8.74813H92.4359V6.9133ZM92.4573 9.96852H94.3337V18.3286H92.4573V9.96852ZM78.6018 6.91249H80.5227V8.74813H78.6018V6.91249ZM78.624 9.96852H80.5005V18.3286H78.624V9.96852ZM90.409 6.9233H88.5325V18.3286H90.409V6.9233ZM84.4277 14.2517V18.3286H82.5455V12.1168C82.5455 11.5199 82.4781 10.3834 82.455 9.97019H83.9705C84.1341 9.97019 84.181 10.0401 84.1859 10.203C84.1892 10.4499 84.2024 11.2388 84.2024 11.2388H84.2452C84.3932 10.8772 84.9268 9.79478 86.4859 9.79478C87.008 9.79478 87.3945 9.96523 87.4578 9.991C87.4578 10.351 87.4208 11.1407 87.4019 11.3494C87.3904 11.4866 87.3312 11.5315 87.2638 11.5315C87.1996 11.5315 87.17 11.5165 87.1346 11.5024C87.0179 11.4525 86.7449 11.3685 86.3658 11.3685C85.3643 11.3685 84.4277 12.0993 84.4277 14.2517ZM101.518 18.3286V12.9298C101.518 11.8989 101.053 11.2705 100.179 11.2705C99.0249 11.2705 98.2585 12.5125 98.2585 14.1885V18.3286H96.3812V12.1874C96.3812 11.5115 96.3204 10.5264 96.2891 9.97019H97.7972C97.9674 9.97019 98.0159 10.0409 98.0176 10.1955C98.0225 10.3742 98.0373 11.2388 98.0373 11.2388H98.0801C98.3062 10.8456 98.8843 9.79397 100.614 9.79397C102.398 9.79397 103.395 11.0269 103.395 12.4111V18.3286H101.518ZM106.712 13.2898H110.185C110.256 11.9422 109.557 11.1873 108.501 11.1873C107.396 11.1873 106.762 11.9954 106.712 13.2898ZM111.342 16.493C111.446 16.493 111.477 16.5853 111.485 16.68C111.517 17.0367 111.547 17.8431 111.543 18.0485C111.342 18.1133 110.333 18.4883 108.978 18.4883C106.346 18.4883 104.762 17.1116 104.762 14.1478C104.762 11.603 106.112 9.79478 108.54 9.79478C110.923 9.79478 112.056 11.4059 112.056 13.4062C112.056 13.6415 112.03 14.0388 111.989 14.5667H106.688C106.688 15.9942 107.587 17.0184 109.25 17.0184C110.166 17.0184 110.895 16.6867 111.184 16.5454C111.242 16.5171 111.275 16.493 111.342 16.493ZM115.738 18.4883C118.181 18.4883 119.35 17.4781 119.35 15.9767C119.35 14.4986 118.312 13.8767 117.211 13.5093C116.896 13.4062 116.586 13.3014 116.298 13.2033C115.545 12.9514 115.154 12.6205 115.154 12.1267C115.154 11.6055 115.624 11.2405 116.601 11.2405C117.47 11.2405 118.179 11.5988 118.46 11.736C118.507 11.7576 118.549 11.7884 118.624 11.7884C118.683 11.7884 118.756 11.7509 118.766 11.603C118.785 11.3228 118.818 10.8149 118.818 10.3269C118.59 10.2213 117.769 9.79478 116.447 9.79478C114.429 9.79478 113.188 10.8564 113.188 12.2572C113.188 13.6157 114.106 14.2359 115.117 14.5743C115.35 14.6541 115.781 14.7971 116.034 14.8835C117.089 15.2377 117.39 15.5594 117.39 16.0582C117.39 16.7092 116.704 17.0309 115.524 17.0309C114.556 17.0309 113.891 16.6717 113.624 16.5454C113.569 16.5213 113.537 16.493 113.463 16.493C113.324 16.493 113.321 16.6801 113.319 16.7108C113.314 16.8006 113.269 17.6669 113.269 17.9553C113.491 18.0518 114.449 18.4883 115.738 18.4883ZM5.10607 9.35419H5.07153L3.31431 14.3739H6.86329L5.10607 9.35419ZM8.24885 18.3286L7.3879 15.8628H2.7897L1.92877 18.3286H-0.0332031L4.08562 7.35227H6.27124L10.3268 18.3286H8.24885ZM38.9192 6.91249H40.8384V8.74726H38.9192V6.91249ZM38.9414 9.96852H40.8162V18.3286H38.9414V9.96852ZM34.9122 14.2517V18.3286H33.0333V12.1168C33.0333 11.519 32.9659 10.3825 32.9412 9.96852H34.4575C34.6211 9.96852 34.6696 10.04 34.6705 10.2021C34.6754 10.4482 34.6902 11.2388 34.6902 11.2388H34.7321C34.881 10.8772 35.413 9.79478 36.9729 9.79478C37.4934 9.79478 37.8831 9.96436 37.9473 9.99014C37.9473 10.3501 37.9086 11.1399 37.8905 11.3494C37.8782 11.4858 37.8182 11.5298 37.7516 11.5298C37.6883 11.5298 37.6562 11.5165 37.6216 11.5024C37.5032 11.4517 37.2311 11.3677 36.8553 11.3677C35.8529 11.3677 34.9122 12.0993 34.9122 14.2517ZM21.051 18.3286V12.9797C21.051 12.0162 20.6481 11.2688 19.6753 11.2688C18.58 11.2688 17.9485 12.4809 17.9485 14.1785V18.3286H16.0729V12.9631C16.0729 12.0868 15.7111 11.2688 14.7046 11.2688C13.5937 11.2688 12.972 12.4784 12.972 14.2384V18.3286H11.0923V12.2398C11.0923 11.4533 11.0232 10.341 11.001 9.96852H12.5033C12.6727 9.96852 12.7286 10.0251 12.7319 10.2021C12.736 10.4241 12.7492 11.2388 12.7492 11.2388H12.792C12.9063 11.0002 13.5238 9.79397 15.2473 9.79397C16.8532 9.79397 17.4675 10.9587 17.6196 11.3178C17.7676 11.0019 18.4805 9.79397 20.0979 9.79397C21.7803 9.79397 22.9283 10.7068 22.9283 12.5407V18.3286H21.051ZM26.2429 13.2882H29.717C29.7886 11.943 29.0913 11.1865 28.033 11.1865C26.9278 11.1865 26.2955 11.9954 26.2429 13.2882ZM30.8756 16.493C30.9784 16.493 31.0097 16.5853 31.0179 16.68C31.0499 17.0367 31.0804 17.8439 31.0754 18.0485C30.8756 18.1133 29.8667 18.4883 28.5116 18.4883C25.8786 18.4883 24.2949 17.1099 24.2949 14.1461C24.2949 11.6046 25.6443 9.79478 28.0741 9.79478C30.4546 9.79478 31.5902 11.4051 31.5902 13.4062C31.5902 13.6415 31.5639 14.0388 31.5219 14.5651H26.2207C26.2207 15.9942 27.1211 17.0184 28.7813 17.0184C29.6981 17.0184 30.4283 16.6867 30.7169 16.5437C30.7745 16.5154 30.8074 16.493 30.8756 16.493ZM54.4193 14.0871H54.1002C51.7419 14.0871 51.2781 14.9159 51.2781 15.7581C51.2781 16.4464 51.7271 17.0983 52.6086 17.0983C53.7795 17.0983 54.4193 15.9551 54.4193 14.7522V14.0871ZM54.8715 18.3286C54.7202 18.3286 54.5944 18.2779 54.578 18.056C54.5599 17.7833 54.5229 17.2554 54.5229 17.2554H54.4974C54.3864 17.4092 53.7022 18.4883 51.9845 18.4883C50.3391 18.4883 49.3951 17.2063 49.3951 15.7988C49.3951 13.8476 51.2691 12.8675 54.0492 12.8675H54.4193V12.5607C54.4193 11.6853 53.8034 11.2164 52.6522 11.2164C51.6161 11.2164 50.756 11.5839 50.4213 11.756C50.3991 11.7668 50.3383 11.8025 50.2824 11.8025C50.1936 11.8025 50.1434 11.7468 50.1385 11.6479C50.1237 11.3336 50.0916 10.7292 50.0866 10.346C50.4254 10.2155 51.5487 9.79397 52.7846 9.79397C55.2416 9.79397 56.2965 10.947 56.2965 12.7885V16.0483C56.2965 17.2371 56.4059 18.0152 56.4446 18.3286H54.8715ZM48.3845 16.493C48.4339 16.493 48.5037 16.5263 48.5202 16.6726C48.5564 17.0708 48.5712 17.7226 48.5728 17.9271C48.1979 18.1141 47.3854 18.4883 46.3888 18.4883C43.8842 18.4883 42.3481 17.0184 42.3481 14.1427C42.3481 11.4483 43.714 9.79478 46.3888 9.79478C47.2761 9.79478 48.0926 10.1074 48.5728 10.3568C48.5728 10.6544 48.544 11.3286 48.5202 11.6121C48.5087 11.731 48.452 11.7884 48.3845 11.7884C48.3097 11.7884 48.2842 11.7684 48.2398 11.7484C47.6354 11.4492 47.0672 11.3045 46.5558 11.3045C44.9614 11.3045 44.3052 12.3595 44.3052 14.1427C44.3052 15.7323 44.8298 16.9785 46.5558 16.9785C47.2152 16.9785 47.8163 16.7408 48.1888 16.5595C48.2891 16.5121 48.3064 16.493 48.3845 16.493ZM63.0582 18.3286V12.9298C63.0582 11.8981 62.5928 11.2696 61.7211 11.2696C60.5658 11.2696 59.7978 12.5108 59.7978 14.1885V18.3286H57.9222V12.1874C57.9222 11.5115 57.8613 10.5264 57.8317 9.96852H59.3373C59.5092 9.96852 59.5585 10.0409 59.5594 10.1955C59.5635 10.3726 59.5775 11.2388 59.5775 11.2388H59.6186C59.8472 10.8448 60.4244 9.79311 62.1545 9.79311C63.9405 9.79311 64.9371 11.0269 64.9371 12.4094V18.3286H63.0582Z" fill="#ADADB0"/>
    </g>
    <defs>
        <clipPath id="clip0_1895_40342">
            <rect width="147" height="24" fill="white" transform="matrix(1 0 0 -1 0 24)"/>
        </clipPath>
    </defs>
</svg>

<svg xmlns="http://www.w3.org/2000/svg" width="147" height="24" fill="none"><g clip-path="url(#a)"><path fill="#ADADB0" d="m130.771 16.663 2.552 4.287c.791 1.285 2.094 1.868 3.718 1.868h6.565L135.92 13.4l-1.09-.628-2.878.95-1.458 2.133.277.807Z"/><path fill="#19191C" d="m135.921 13.396-1.604-1.966-4.241 2.306.45 2.328.246.593c-.096-1.577 2.583-3.409 5.149-3.261Z"/><path fill="#ADADB0" d="m130.771 16.66-2.294-3.836c-.276-.435-.352-.816-.352-1.26 0-.488.206-.755.996-1.179.92-.445 2.773-.639 4.683-.639 3.104 0 3.848 1.007 4.165 2.094 0 0-.438-.176-1.469-.176-3.27 0-5.884 1.605-5.884 4.034 0 .51.155.961.155.961ZM120.918.34h3.086c1.302 0 1.835.538 2.362 1.066.603.554 2.43 3.055 6.294 7.936h-4.182c-1.71 0-2.251-.294-2.912-1.314L120.918.34ZM145.53 21.8l.223.812h.004l.227-.811h.19l.147 1.016h-.152l-.104-.83h-.003l-.235.83h-.163l-.227-.826h-.003l-.104.826h-.145l.146-1.016h.199Zm-.473 0v.131h-.296v.886h-.147v-.886h-.296v-.13h.739ZM72.632 9.354h-.035l-1.756 5.02h3.552l-1.761-5.02Zm3.144 8.975-.86-2.466h-4.599l-.861 2.466h-1.963l4.119-10.976h2.187l4.055 10.976h-2.078Zm16.66-11.416h1.92v1.835h-1.92V6.913Zm.021 3.056h1.877v8.36h-1.877v-8.36ZM78.602 6.912h1.92v1.836h-1.92V6.912Zm.022 3.057h1.877v8.36h-1.877v-8.36Zm11.785-3.046h-1.877V18.33h1.877V6.923Zm-5.981 7.329v4.077h-1.882v-6.212c0-.597-.068-1.734-.091-2.147h1.516c.163 0 .21.07.215.233l.016 1.036h.043c.148-.362.682-1.444 2.24-1.444.523 0 .91.17.973.196 0 .36-.037 1.15-.056 1.358-.012.138-.07.182-.138.182-.064 0-.094-.014-.13-.029a2.05 2.05 0 0 0-.768-.134c-1.002 0-1.938.731-1.938 2.884Zm17.09 4.077v-5.4c0-1.03-.465-1.659-1.339-1.659-1.154 0-1.92 1.242-1.92 2.918v4.14H96.38v-6.14c0-.677-.06-1.662-.092-2.218h1.508c.17 0 .219.07.22.225.005.18.02 1.044.02 1.044h.043c.226-.393.804-1.445 2.534-1.445 1.784 0 2.781 1.233 2.781 2.617v5.918h-1.877Zm5.194-5.04h3.473c.071-1.347-.628-2.102-1.684-2.102-1.105 0-1.739.808-1.789 2.103Zm4.63 3.204c.104 0 .135.092.143.187.032.357.062 1.163.058 1.369-.201.064-1.21.44-2.565.44-2.632 0-4.216-1.377-4.216-4.341 0-2.545 1.35-4.353 3.778-4.353 2.383 0 3.516 1.61 3.516 3.611 0 .236-.026.633-.067 1.16h-5.301c0 1.428.899 2.452 2.562 2.452.916 0 1.645-.331 1.934-.473.058-.028.091-.052.158-.052Zm4.396 1.995c2.443 0 3.612-1.01 3.612-2.511 0-1.478-1.038-2.1-2.139-2.468a80.464 80.464 0 0 1-.913-.306c-.753-.252-1.144-.582-1.144-1.076 0-.522.47-.886 1.447-.886.869 0 1.578.358 1.859.495.047.022.089.052.164.052.059 0 .132-.037.142-.185.019-.28.052-.788.052-1.276-.228-.106-1.049-.532-2.371-.532-2.018 0-3.259 1.061-3.259 2.462 0 1.359.918 1.979 1.929 2.317.233.08.664.223.917.31 1.055.354 1.356.675 1.356 1.174 0 .651-.686.973-1.866.973-.968 0-1.633-.36-1.9-.486-.055-.024-.087-.052-.161-.052-.139 0-.142.187-.144.218-.005.09-.05.956-.05 1.244.222.097 1.18.533 2.469.533ZM5.106 9.354h-.034l-1.758 5.02h3.55l-1.758-5.02ZM8.25 18.33l-.861-2.466H2.79l-.861 2.466H-.033L4.086 7.352H6.27l4.056 10.977H8.249Zm30.67-11.417h1.92v1.835h-1.92V6.912Zm.022 3.057h1.875v8.36h-1.875v-8.36Zm-4.029 4.283v4.077h-1.879v-6.212c0-.598-.067-1.735-.092-2.148h1.517c.163 0 .212.071.212.233l.02 1.037h.042c.149-.362.681-1.444 2.24-1.444.521 0 .911.17.975.195 0 .36-.038 1.15-.056 1.36-.013.136-.073.18-.14.18-.063 0-.095-.013-.13-.028a2.036 2.036 0 0 0-.766-.134c-1.002 0-1.943.731-1.943 2.884Zm-13.861 4.077v-5.35c0-.963-.403-1.71-1.376-1.71-1.095 0-1.727 1.212-1.727 2.91v4.15h-1.875v-5.366c0-.876-.362-1.694-1.368-1.694-1.111 0-1.733 1.21-1.733 2.97v4.09h-1.88v-6.09c0-.786-.069-1.898-.091-2.27h1.502c.17 0 .226.056.229.233l.017 1.037h.043c.114-.239.732-1.445 2.455-1.445 1.606 0 2.22 1.165 2.373 1.524.148-.316.86-1.524 2.478-1.524 1.682 0 2.83.913 2.83 2.747v5.788h-1.877Zm5.192-5.04h3.474c.072-1.346-.626-2.102-1.684-2.102-1.105 0-1.738.808-1.79 2.101Zm4.633 3.204c.102 0 .134.092.142.187.032.357.062 1.164.057 1.369-.2.064-1.208.44-2.563.44-2.633 0-4.217-1.38-4.217-4.343 0-2.541 1.35-4.351 3.78-4.351 2.38 0 3.515 1.61 3.515 3.611 0 .236-.026.633-.068 1.16H26.22c0 1.428.9 2.452 2.56 2.452.917 0 1.647-.331 1.936-.474.058-.029.09-.051.159-.051Zm23.543-2.406H54.1c-2.358 0-2.822.829-2.822 1.671 0 .688.45 1.34 1.33 1.34 1.172 0 1.811-1.143 1.811-2.346v-.665Zm.453 4.242c-.152 0-.278-.051-.294-.273l-.055-.8h-.026c-.11.153-.795 1.232-2.513 1.232-1.645 0-2.589-1.282-2.589-2.69 0-1.95 1.874-2.93 4.654-2.93h.37v-.307c0-.876-.616-1.345-1.767-1.345a5.122 5.122 0 0 0-2.23.54c-.023.01-.084.046-.14.046-.088 0-.139-.055-.143-.154-.015-.314-.047-.919-.052-1.302.338-.13 1.462-.552 2.698-.552 2.457 0 3.512 1.153 3.512 2.995v3.26c0 1.188.109 1.966.148 2.28H54.87Zm-6.487-1.836c.049 0 .119.033.135.18a19.6 19.6 0 0 1 .053 1.254c-.375.187-1.188.561-2.184.561-2.505 0-4.04-1.47-4.04-4.345 0-2.695 1.365-4.348 4.04-4.348.887 0 1.704.312 2.184.562 0 .297-.029.972-.053 1.255-.011.119-.068.176-.136.176-.074 0-.1-.02-.144-.04-.605-.299-1.173-.443-1.684-.443-1.595 0-2.25 1.055-2.25 2.838 0 1.59.524 2.835 2.25 2.835.66 0 1.26-.237 1.633-.419.1-.047.117-.066.196-.066Zm14.673 1.836v-5.4c0-1.03-.465-1.66-1.337-1.66-1.155 0-1.923 1.242-1.923 2.92v4.14h-1.876v-6.142c0-.675-.06-1.66-.09-2.218h1.505c.172 0 .221.072.222.226.005.178.019 1.044.019 1.044h.04c.23-.394.806-1.446 2.536-1.446 1.786 0 2.783 1.234 2.783 2.616v5.92h-1.879Z"/></g><defs><clipPath id="a"><path fill="#fff" d="M0 24h147V0H0z"/></clipPath></defs></svg>
